X:5081
T:Farewell, The
R:Jig
O:England
M:6/8
A:Lancashire
B:Winder
K:D
A | d2A FAF | D2A FAF | d2A FGA | BGE E2A  | \
d2A FAF | D2A FGA | B/2c/2dB cec | d3 d3 :|*
|:A | d2d faf | ece g2e | d2d faf | ecA A2A | \
d2d faf | ece gfg | agf edc | d3 d2 :|**
